file-star-four-points.svg

<svg fill="currentColor" viewBox="0 0 24 24"><path d="M4 4c0-1.11.89-2 2-2h8l6 6v12c0 .53-.21 1.04-.59 1.41-.37.38-.88.59-1.41.59H6c-.53 0-1.04-.21-1.41-.59C4.21 21.04 4 20.53 4 20zm9-.5V9h5.5zM12 11l-1.26 2.75L8 15l2.74 1.26L12 19l1.25-2.74L16 15l-2.75-1.25z"/></svg>

<svg  viewBox="0 0 24 24" fill="currentColor"><path  d="M4 4C4 2.89 4.89 2 6 2H14L20 8V20C20 20.53 19.79 21.04 19.41 21.41C19.04 21.79 18.53 22 18 22H6C5.47 22 4.96 21.79 4.59 21.41C4.21 21.04 4 20.53 4 20V4M13 3.5V9H18.5L13 3.5M12 11L10.74 13.75L8 15L10.74 16.26L12 19L13.25 16.26L16 15L13.25 13.75L12 11Z"/></svg>
